svg/home-work-calc.svg

<svg width="402" height="383" viewBox="0 0 402 383" fill="none" xmlns="http://www.w3.org/2000/svg">
<path d="M178 40.75C177.921 43.8495 177.259 46.7232 176.639 49.7361C176.503 50.3946 176.555 51.2782 176.25 51.8889C176.148 52.0934 176.205 51.3523 176 51.25" stroke="#15CE79" stroke-width="3" stroke-linecap="round"/>
<path d="M175 56.5C175 59.1936 174.328 62.1471 173.694 64.75C173.581 65.2155 173.214 67.6783 173 67.25" stroke="#15CE79" stroke-width="3" stroke-linecap="round"/>
<path d="M181.25 40.75C183.672 42.2203 187.198 40.9652 189.5 42.5" stroke="#15CE79" stroke-width="3" stroke-linecap="round"/>
<path d="M189.75 45.5C189.694 47.0061 188.912 48.4951 188.444 49.9167C187.925 51.4947 187.75 52.8602 187.75 54.5" stroke="#15CE79" stroke-width="3" stroke-linecap="round"/>
<path d="M180 55.25C181.297 55.2999 182.872 55.9359 184 56.5" stroke="#15CE79" stroke-width="3" stroke-linecap="round"/>
<path d="M179.5 59.5C180.306 62.0073 181.015 64.4813 182 66.9444C182.177 67.388 182.668 69.3339 183 69.5" stroke="#15CE79" stroke-width="3" stroke-linecap="round"/>
<path d="M201.5 46C200.112 49.0842 199.475 53.1777 199 56.5" stroke="#15CE79" stroke-width="3" stroke-linecap="round"/>
<path d="M197.5 61.5C196.848 64.3518 196.447 67.3691 195.361 70.0833C195.157 70.5927 195 72.7413 195 72" stroke="#15CE79" stroke-width="3" stroke-linecap="round"/>
<path d="M221 50.727C219.303 50.2048 217.562 49.9145 215.875 49.352C215.202 49.1277 212.169 47.3881 211.75 48.227" stroke="#15CE79" stroke-width="3" stroke-linecap="round"/>
<path d="M209.25 51.2271C209.201 52.6061 208.68 53.609 208.139 54.8382C208.018 55.1135 207.5 56.412 207.5 56.2271" stroke="#15CE79" stroke-width="3" stroke-linecap="round"/>
<path d="M209 59.9772C209.756 59.9772 210.524 59.9372 211.278 59.991C212.359 60.0683 213.207 60.7319 214.25 60.9216C214.897 61.0392 216.942 60.8616 217.25 61.4772" stroke="#15CE79" stroke-width="3" stroke-linecap="round"/>
<path d="M216.5 65.4771C215.948 67.9445 215.262 70.2537 214.278 72.5743C213.959 73.3262 213.75 73.6745 213.75 74.4771" stroke="#15CE79" stroke-width="3" stroke-linecap="round"/>
<path d="M201 74.7271C203.422 75.4786 205.676 76.5626 207.986 77.6021C208.535 77.849 208.907 77.9771 209.5 77.9771" stroke="#15CE79" stroke-width="3" stroke-linecap="round"/>
<path d="M229.5 50.7271C229.5 53.0686 228.982 54.9701 228.5 57.2271C228.189 58.6817 227.5 60.2381 227.5 61.7271" stroke="#15CE79" stroke-width="3" stroke-linecap="round"/>
<path d="M226 65.9771C225.262 67.177 225.107 68.7655 224.75 70.1159C224.256 71.9873 223.748 73.8744 223.194 75.7271C222.947 76.5546 222.664 77.4187 222.375 78.2271C222.16 78.83 222.25 79.0507 222.25 78.2271" stroke="#15CE79" stroke-width="3" stroke-linecap="round"/>
<path d="M231.25 64.7269C234.206 63.1012 236.959 60.8329 239.708 58.8797C240.746 58.1426 241.845 57.6075 242.944 56.9769C243.248 56.8025 244.017 55.9426 243.75 56.4769" stroke="#15CE79" stroke-width="3" stroke-linecap="round"/>
<path d="M232.5 67.9771C232.607 71.8406 235.627 75.1615 237.597 78.2271C238.069 78.9606 238.5 80.0906 238.5 80.9771" stroke="#15CE79" stroke-width="3" stroke-linecap="round"/>
<path d="M144 89C129.724 113.807 116.418 138.427 99.2222 161.444C80.023 187.143 60.7717 213.616 38.3888 236.667C27.0741 248.319 17.0644 261.356 6.66662 273.833C4.69241 276.202 1.43171 280 5.99996 280" stroke="#4D4D4D" stroke-width="3" stroke-linecap="round"/>
<path d="M220 358C231.333 345.048 240.229 327.71 249 313C260.986 292.897 274.725 273.902 285.778 253.222C294.052 237.742 301.274 221.831 308.556 205.944C319.415 182.251 336.386 159.926 352.944 140.056C356.427 135.876 358.812 131.349 361.444 126.611C362.634 124.47 366.579 118.586 364 124.389C362.629 127.474 363 122.526 363 121.556C363 115.927 365.219 110.244 367 105C370.537 94.5851 374 82.6203 374 71.5556C374 68.1632 377.696 62.5436 376 60" stroke="#4D4D4D" stroke-width="3" stroke-linecap="round"/>
<path d="M146 88.0001C142.717 79.3826 145.02 66.9142 147 58.2223C148.824 50.2181 149 42.7302 149 34.5556C149 31.8462 150.311 29.1615 151.056 26.5556C151.408 25.3236 152 21.6337 152 22.0001" stroke="#4D4D4D" stroke-width="3" stroke-linecap="round"/>
<path d="M156 14C166.213 14.4255 175.935 18.2147 185.944 20.0556C211.571 24.7684 237.656 26.4221 263.333 31.0556C280.949 34.2343 298.025 39.7752 315.667 43C326.93 45.0588 338.414 45.0074 349.667 47C358.159 48.5038 365.939 50.9635 374.056 53.5C379.849 55.3104 388.757 57 376 57" stroke="#4D4D4D" stroke-width="3" stroke-linecap="round"/>
<path d="M168 2C182.249 4.10225 195.489 7.52824 210.056 7.94444C226.055 8.40158 242.013 10.1044 257.778 13C269.44 15.142 281.199 14.6957 292.889 16.5556C302.717 18.1192 312.383 20.7084 322.222 22.2222C330.771 23.5375 338.805 26.5196 347.167 28.5C355.18 30.398 363.422 31.0235 371.444 33C377.388 34.4644 385.371 39 391.5 39C399.458 39 400 42.1805 400 48.9444C400 60.8063 399.645 73.6361 396 85C391.449 99.1899 385 115.657 385 130.5C385 137.19 378.169 140.897 375 146.556C370.805 154.047 366.248 161.315 362 168.778C357.348 176.949 353.741 186.197 348.5 193.944C343.199 201.78 338.792 210.103 334.778 218.667C329.848 229.184 323.078 238.308 316.611 247.889C301.312 270.555 284.672 292.711 272 317C265.632 329.205 255.397 340.066 246 350C240.331 355.993 233.4 362.849 230 370.5C228.99 372.773 226.944 374.667 225.778 377C225.197 378.162 224.683 382.825 223.944 379.5C222.597 373.437 220 366.173 220 360" stroke="#4D4D4D" stroke-width="3" stroke-linecap="round"/>
<path d="M2 303C33.3749 319.455 67.3789 329.581 100 343.222C122.942 352.816 147.017 360.755 171 367.5C183.806 371.102 196.512 373.593 209.444 375.944C212.02 376.413 225.542 377.187 223 381" stroke="#4D4D4D" stroke-width="3" stroke-linecap="round"/>
<path d="M3.99997 278C3.99997 284.548 3.33167 291.485 4.05553 298C4.39339 301.041 5.99997 303.071 5.99997 306" stroke="#4D4D4D" stroke-width="3" stroke-linecap="round"/>
<path d="M3 281C9.55163 289.517 25.0462 293.574 34.3333 297.944C50.0209 305.327 64.76 311.664 81.5 316.5C95.1574 320.445 106.612 329.113 120.111 333.5C129.89 336.678 138.811 341.27 148.5 344.5C160.663 348.554 172.695 352.706 185 356.222C190.755 357.866 207.985 362 202 362" stroke="#4D4D4D" stroke-width="3" stroke-linecap="round"/>
<path d="M155.25 13.5001C160.432 10.9801 164.884 7.54791 169.833 4.66672C170.463 4.30027 171.762 3.27783 172.569 3.27783C172.816 3.27783 172.11 3.5295 172 3.75005" stroke="#4D4D4D" stroke-width="3" stroke-linecap="round"/>
<path d="M381.5 55.75C385.094 52.2921 388.579 48.4817 392.611 45.5139C393.552 44.8214 394.544 44.2182 395.639 43.8056C396.129 43.6208 397.283 43.6842 397.5 43.25" stroke="#4D4D4D" stroke-width="3" stroke-linecap="round"/>
<path d="M166.25 28.25C165.487 38.5534 164.507 48.8155 163.389 59.0833C163.03 62.3776 162.5 65.6831 162.5 69C162.5 69.8741 162.35 70.624 162.264 71.4861C162.19 72.2289 162.514 73.4858 162 74" stroke="#4D4D4D" stroke-width="3" stroke-linecap="round"/>
<path d="M163 74.75C168.153 76.1874 173.373 77.3133 178.542 78.6806C185.997 80.6526 193.138 83.5643 200.569 85.6111C211.857 88.7199 223.45 90.9037 234.903 93.3056C246.215 95.6781 257.581 97.8538 268.931 100.042C287.277 103.578 305.473 108.002 324.028 110.389C328.616 110.979 333.34 111.069 337.833 112.25C339.087 112.58 340.255 113.189 341.5 113.5" stroke="#4D4D4D" stroke-width="3" stroke-linecap="round"/>
<path d="M350.25 110.75C350.622 104.023 351.452 97.4311 352.361 90.7639C353.154 84.9475 353.175 79.1269 353.639 73.2917C353.861 70.5014 354 67.7721 354 64.9722C354 64.4464 354.263 63.0067 353.75 62.75" stroke="#4D4D4D" stroke-width="3" stroke-linecap="round"/>
<path d="M180.5 29C187.951 30.8187 195.309 33.0308 202.806 34.6528C212.215 36.6887 221.729 38.1919 231.167 40.0833C238.188 41.4905 245.147 43.2493 252.083 45.0278C258.604 46.6999 265.089 47.753 271.736 48.75C281.205 50.1704 290.059 53.7544 299.556 55.1111C303.297 55.6456 307.064 56.0475 310.778 56.75C314.21 57.3992 317.534 58.468 320.972 59.0556C327.131 60.108 333.319 60.86 339.5 61.75C341.81 62.0826 344.149 62.2094 346.444 62.6111C347.408 62.7798 348.383 63 349.361 63C351.409 63 357.548 62.75 355.5 62.75" stroke="#4D4D4D" stroke-width="3" stroke-linecap="round"/>
<path d="M165.5 104C173.072 104.457 180.684 105.199 188.181 106.361C195.935 107.563 203.562 109.778 211.167 111.667C228.88 116.066 246.737 119.445 264.694 122.694C278.352 125.166 291.839 128.082 305.167 132C309.945 133.405 314.677 135.294 319.5 136.5" stroke="#4D4D4D" stroke-width="3" stroke-linecap="round"/>
<path d="M153.5 130.5C162.655 130.589 171.55 131.182 180.528 133.042C187.046 134.392 193.518 136.04 199.972 137.667C214.846 141.414 229.63 145.489 244.5 149.25C257.372 152.505 270.143 156.28 282.944 159.806C287.573 161.08 293.317 162.051 297.25 165" stroke="#4D4D4D" stroke-width="3" stroke-linecap="round"/>
<path d="M140.5 153.25C154.872 157.073 169.369 160.39 183.667 164.5C196.081 168.069 208.558 171.363 221.014 174.778C232.567 177.945 243.941 181.573 255.194 185.681C264.383 189.035 273.451 192.718 282.75 195.75" stroke="#4D4D4D" stroke-width="3" stroke-linecap="round"/>
<path d="M122.25 179.25C140.241 184.712 158.722 188.459 176.944 193.056C191.637 196.761 206.123 201.229 220.458 206.125C240.082 212.827 259.611 219.902 279 227.25" stroke="#4D4D4D" stroke-width="3" stroke-linecap="round"/>
<path d="M103.75 206.5C125.216 212.612 146.784 218.355 168.25 224.458C177.8 227.174 187.048 230.454 196.222 234.25C211.953 240.759 227.282 248.058 243.25 254" stroke="#4D4D4D" stroke-width="3" stroke-linecap="round"/>
<path d="M79.25 232C99.797 239.429 120.387 246.763 141.042 253.889C153.249 258.101 165.677 261.595 178 265.444C194.692 270.659 212.115 275.273 227.75 283.25" stroke="#4D4D4D" stroke-width="3" stroke-linecap="round"/>
<path d="M321 136.25C316.668 144.499 312.244 152.517 307.056 160.25C303.658 165.314 300.419 170.476 296.958 175.5C291.704 183.127 286.661 190.868 281.667 198.667C275.786 207.85 268.814 216.272 263.014 225.5C257.897 233.641 253.443 242.193 248.194 250.25C245.952 253.693 243.62 257.042 241.528 260.583C239.02 264.83 236.848 269.293 234.236 273.472C230.08 280.122 225.189 286.268 221.056 292.944C217.256 299.082 214.043 305.527 210.222 311.653C208.122 315.02 205.527 317.812 203.25 321" stroke="#4D4D4D" stroke-width="3" stroke-linecap="round"/>
<path d="M64.75 261.5C85.7853 266.302 107.149 270.642 127.278 278.611C136.47 282.25 145.485 286.331 154.583 290.194C159.611 292.329 164.615 294.144 169.819 295.792C173.251 296.878 176.502 298.356 179.486 300.375C182.073 302.125 184.934 303.046 187.194 305.306C189.148 307.259 190.671 309.497 193.056 311C196.006 312.859 199.106 314.209 201.75 316.5" stroke="#4D4D4D" stroke-width="3" stroke-linecap="round"/>
<path d="M64.25 254.25C71.4232 241.748 79.725 230.118 87.75 218.167C95.3857 206.795 102.762 195.255 110.611 184.028C116.682 175.343 122.978 166.767 128.639 157.806C132.455 151.765 135.888 145.5 139.792 139.514C144.625 132.102 151.01 125.987 156.694 119.25C159.508 115.916 162.527 112.721 165.5 109.528C166.831 108.099 168.225 106.72 169.75 105.5" stroke="#4D4D4D" stroke-width="3" stroke-linecap="round"/>
<path d="M176.75 300.75C177.905 300.781 178.414 300.031 179.056 299.139C180.373 297.307 181.572 295.39 182.889 293.556C184.893 290.763 186.999 288.044 189 285.25C191.931 281.157 194.384 276.794 197 272.5" stroke="#4D4D4D" stroke-width="3" stroke-linecap="round"/>
<path d="M149 285C153.019 277.165 159.964 271.672 164.5 264.25" stroke="#4D4D4D" stroke-width="3" stroke-linecap="round"/>
<path d="M196.5 275.25C200.972 265.632 207.183 257.243 212.889 248.361C219.379 238.258 225.199 227.813 231.986 217.889C237.009 210.543 241.519 202.818 246.75 195.625C250.716 190.172 255.009 184.986 258.75 179.375C265.073 169.89 272.21 161.238 279.583 152.556C282.957 148.583 285.902 144.369 288.972 140.167C291.207 137.108 294.555 134.029 295.5 130.25" stroke="#4D4D4D" stroke-width="3" stroke-linecap="round"/>
<path d="M264.25 128.5C255.264 140.279 246.728 152.452 237.444 164C230.95 172.078 224.086 179.83 218.361 188.5C209.772 201.507 200.78 214.317 192.639 227.611C188.264 234.756 184.455 242.791 178.944 249.167C174.847 253.908 171.483 259.023 167.75 264" stroke="#4D4D4D" stroke-width="3" stroke-linecap="round"/>
<path d="M210.5 118.75C202.025 129.891 193.468 140.937 184.611 151.778C178.203 159.622 171.662 167.36 165.556 175.444C154.2 190.478 144.941 206.541 136.778 223.5C133.526 230.255 130.777 237.26 127.5 244C126.788 245.464 126.105 246.941 125.361 248.389C125.097 248.903 125.25 247.429 125.25 247.25" stroke="#4D4D4D" stroke-width="3" stroke-linecap="round"/>
</svg>

<svg xmlns="http://www.w3.org/2000/svg" width="402" height="383" fill="none"><path stroke="#15CE79" stroke-linecap="round" stroke-width="3" d="M178 40.75c-.079 3.1-.741 5.973-1.361 8.986-.136.659-.084 1.542-.389 2.153-.102.204-.045-.537-.25-.639m-1 5.25c0 2.694-.672 5.647-1.306 8.25-.113.466-.48 2.928-.694 2.5m8.25-26.5c2.422 1.47 5.948.215 8.25 1.75m.25 3c-.056 1.506-.838 2.995-1.306 4.417-.519 1.578-.694 2.943-.694 4.583m-7.75.75c1.297.05 2.872.686 4 1.25m-4.5 3c.806 2.507 1.515 4.981 2.5 7.444.177.444.668 2.39 1 2.556M201.5 46c-1.388 3.084-2.025 7.178-2.5 10.5m-1.5 5c-.652 2.852-1.053 5.87-2.139 8.583-.204.51-.361 2.658-.361 1.917m26-21.273c-1.697-.522-3.438-.813-5.125-1.375-.673-.224-3.706-1.964-4.125-1.125m-2.5 3c-.049 1.38-.57 2.382-1.111 3.611-.121.276-.639 1.574-.639 1.39m1.5 3.749c.756 0 1.524-.04 2.278.014 1.081.077 1.929.74 2.972.93.647.118 2.692-.06 3 .556m-.75 4c-.552 2.468-1.238 4.777-2.222 7.097-.319.752-.528 1.1-.528 1.903m-12.75.25c2.422.752 4.676 1.836 6.986 2.875.549.247.921.375 1.514.375m20-27.25c0 2.342-.518 4.243-1 6.5-.311 1.455-1 3.011-1 4.5m-1.5 4.25c-.738 1.2-.893 2.788-1.25 4.139a179.94 179.94 0 0 1-1.556 5.611c-.247.828-.53 1.692-.819 2.5-.215.603-.125.824-.125 0m9-13.5c2.956-1.626 5.709-3.894 8.458-5.847 1.038-.737 2.137-1.273 3.236-1.903.304-.174 1.073-1.034.806-.5m-11.25 11.5c.107 3.864 3.127 7.184 5.097 10.25.472.734.903 1.864.903 2.75"/><path stroke="#4D4D4D" stroke-linecap="round" stroke-width="3" d="M144 89c-14.276 24.807-27.582 49.427-44.778 72.444-19.199 25.699-38.45 52.172-60.833 75.223-11.315 11.652-21.325 24.689-31.722 37.166C4.692 276.202 1.432 280 6 280m214 78c11.333-12.952 20.229-30.29 29-45 11.986-20.103 25.725-39.098 36.778-59.778 8.274-15.48 15.496-31.391 22.778-47.278 10.859-23.693 27.83-46.018 44.388-65.888 3.483-4.18 5.868-8.707 8.5-13.445 1.19-2.141 5.135-8.025 2.556-2.222-1.371 3.085-1-1.863-1-2.833 0-5.629 2.219-11.312 4-16.556 3.537-10.415 7-22.38 7-33.444 0-3.393 3.696-9.012 2-11.556M146 88c-3.283-8.617-.98-21.086 1-29.778 1.824-8.004 2-15.492 2-23.666 0-2.71 1.311-5.394 2.056-8 .352-1.232.944-4.922.944-4.556m4-8c10.213.425 19.935 4.215 29.944 6.056 25.627 4.712 51.712 6.366 77.389 11 17.616 3.178 34.692 8.72 52.334 11.944 11.263 2.059 22.747 2.007 34 4 8.492 1.504 16.272 3.964 24.389 6.5 5.793 1.81 14.701 3.5 1.944 3.5"/><path stroke="#4D4D4D" stroke-linecap="round" stroke-width="3" d="M168 2c14.249 2.102 27.489 5.528 42.056 5.944A313.844 313.844 0 0 1 257.778 13c11.662 2.142 23.421 1.696 35.111 3.556 9.828 1.563 19.494 4.152 29.333 5.666 8.549 1.316 16.583 4.298 24.945 6.278 8.013 1.898 16.255 2.523 24.277 4.5 5.944 1.464 13.927 6 20.056 6 7.958 0 8.5 3.18 8.5 9.944 0 11.862-.355 24.692-4 36.056-4.551 14.19-11 30.657-11 45.5 0 6.69-6.831 10.397-10 16.056-4.195 7.491-8.752 14.759-13 22.222-4.652 8.171-8.259 17.419-13.5 25.166-5.301 7.836-9.708 16.159-13.722 24.723-4.93 10.517-11.7 19.641-18.167 29.222C301.312 270.555 284.672 292.711 272 317c-6.368 12.205-16.603 23.066-26 33-5.669 5.993-12.6 12.849-16 20.5-1.01 2.273-3.056 4.167-4.222 6.5-.581 1.162-1.095 5.825-1.834 2.5-1.347-6.063-3.944-13.327-3.944-19.5"/><path stroke="#4D4D4D" stroke-linecap="round" stroke-width="3" d="M2 303c31.375 16.455 65.379 26.581 98 40.222 22.942 9.594 47.017 17.533 71 24.278 12.806 3.602 25.512 6.093 38.444 8.444 2.576.469 16.098 1.243 13.556 5.056"/><path stroke="#4D4D4D" stroke-linecap="round" stroke-width="3" d="M4 278c0 6.548-.668 13.485.056 20C4.393 301.041 6 303.071 6 306"/><path stroke="#4D4D4D" stroke-linecap="round" stroke-width="3" d="M3 281c6.552 8.517 22.046 12.574 31.333 16.944 15.688 7.383 30.427 13.72 47.167 18.556 13.657 3.945 25.112 12.613 38.611 17 9.779 3.178 18.7 7.77 28.389 11 12.163 4.054 24.195 8.206 36.5 11.722 5.755 1.644 22.985 5.778 17 5.778M155.25 13.5c5.182-2.52 9.634-5.952 14.583-8.833.63-.367 1.929-1.39 2.736-1.39.247 0-.459.252-.569.473m209.5 52c3.594-3.458 7.079-7.268 11.111-10.236.941-.693 1.933-1.296 3.028-1.708.49-.185 1.644-.122 1.861-.556m-231.25-15c-.763 10.303-1.743 20.566-2.861 30.833-.359 3.295-.889 6.6-.889 9.917 0 .874-.15 1.624-.236 2.486-.074.743.25 2-.264 2.514m1 .75c5.153 1.437 10.373 2.563 15.542 3.93 7.455 1.973 14.596 4.884 22.027 6.931 11.288 3.109 22.881 5.293 34.334 7.695 11.312 2.372 22.678 4.548 34.028 6.736 18.346 3.536 36.542 7.96 55.097 10.347 4.588.59 9.312.68 13.805 1.861 1.254.33 2.422.939 3.667 1.25m8.75-2.75c.372-6.727 1.202-13.319 2.111-19.986.793-5.816.814-11.637 1.278-17.472.222-2.79.361-5.52.361-8.32 0-.526.263-1.965-.25-2.222"/><path stroke="#4D4D4D" stroke-linecap="round" stroke-width="3" d="M180.5 29c7.451 1.819 14.809 4.03 22.306 5.653 9.409 2.036 18.923 3.539 28.361 5.43 7.021 1.407 13.98 3.166 20.916 4.945 6.521 1.672 13.006 2.725 19.653 3.722 9.469 1.42 18.323 5.004 27.82 6.361 3.741.535 7.508.937 11.222 1.639 3.432.65 6.756 1.718 10.194 2.306 6.159 1.052 12.347 1.804 18.528 2.694 2.31.333 4.649.46 6.944.861.964.169 1.939.389 2.917.389 2.048 0 8.187-.25 6.139-.25M165.5 104c7.572.457 15.184 1.199 22.681 2.361 7.754 1.202 15.381 3.417 22.986 5.306 17.713 4.399 35.57 7.778 53.527 11.027 13.658 2.472 27.145 5.388 40.473 9.306 4.778 1.405 9.51 3.294 14.333 4.5m-166-6c9.155.089 18.05.682 27.028 2.542 6.518 1.35 12.99 2.998 19.444 4.625 14.874 3.747 29.658 7.822 44.528 11.583 12.872 3.255 25.643 7.03 38.444 10.556 4.629 1.274 10.373 2.245 14.306 5.194M140.5 153.25c14.372 3.823 28.869 7.14 43.167 11.25 12.414 3.569 24.891 6.863 37.347 10.278a434.593 434.593 0 0 1 34.18 10.903c9.189 3.354 18.257 7.037 27.556 10.069m-160.5-16.5c17.991 5.462 36.472 9.209 54.694 13.806 14.693 3.705 29.179 8.173 43.514 13.069 19.624 6.702 39.153 13.777 58.542 21.125M103.75 206.5c21.466 6.112 43.034 11.855 64.5 17.958 9.55 2.716 18.798 5.996 27.972 9.792 15.731 6.509 31.06 13.808 47.028 19.75m-164-22c20.547 7.429 41.137 14.763 61.792 21.889 12.207 4.212 24.635 7.706 36.958 11.555 16.692 5.215 34.115 9.829 49.75 17.806"/><path stroke="#4D4D4D" stroke-linecap="round" stroke-width="3" d="M321 136.25c-4.332 8.249-8.756 16.267-13.944 24-3.398 5.064-6.637 10.226-10.098 15.25-5.254 7.627-10.297 15.368-15.291 23.167-5.881 9.183-12.853 17.605-18.653 26.833-5.117 8.141-9.571 16.693-14.82 24.75-2.242 3.443-4.574 6.792-6.666 10.333-2.508 4.247-4.68 8.71-7.292 12.889-4.156 6.65-9.047 12.796-13.18 19.472-3.8 6.138-7.013 12.583-10.834 18.709-2.1 3.367-4.695 6.159-6.972 9.347m-138.5-59.5c21.035 4.802 42.399 9.142 62.528 17.111 9.192 3.639 18.207 7.72 27.305 11.583 5.028 2.135 10.032 3.95 15.236 5.598 3.432 1.086 6.683 2.564 9.667 4.583 2.587 1.75 5.448 2.671 7.708 4.931 1.954 1.953 3.477 4.191 5.862 5.694 2.95 1.859 6.05 3.209 8.694 5.5m-137.5-62.25c7.173-12.502 15.475-24.132 23.5-36.083 7.636-11.372 15.012-22.912 22.861-34.139 6.071-8.685 12.367-17.261 18.028-26.222 3.816-6.041 7.249-12.306 11.153-18.292 4.833-7.412 11.218-13.527 16.902-20.264 2.814-3.334 5.833-6.529 8.806-9.722 1.331-1.429 2.725-2.808 4.25-4.028"/><path stroke="#4D4D4D" stroke-linecap="round" stroke-width="3" d="M176.75 300.75c1.155.031 1.664-.719 2.306-1.611 1.317-1.832 2.516-3.749 3.833-5.583 2.004-2.793 4.11-5.512 6.111-8.306 2.931-4.093 5.384-8.456 8-12.75M149 285c4.019-7.835 10.964-13.328 15.5-20.75m32 11c4.472-9.618 10.683-18.007 16.389-26.889 6.49-10.103 12.31-20.548 19.097-30.472 5.023-7.346 9.533-15.071 14.764-22.264 3.966-5.453 8.259-10.639 12-16.25 6.323-9.485 13.46-18.137 20.833-26.819 3.374-3.973 6.319-8.187 9.389-12.389 2.235-3.059 5.583-6.138 6.528-9.917m-31.25-1.75c-8.986 11.779-17.522 23.952-26.806 35.5-6.494 8.078-13.358 15.83-19.083 24.5-8.589 13.007-17.581 25.817-25.722 39.111-4.375 7.145-8.184 15.18-13.695 21.556-4.097 4.741-7.461 9.856-11.194 14.833m42.75-145.25c-8.475 11.141-17.032 22.187-25.889 33.028-6.408 7.844-12.949 15.582-19.055 23.666-11.356 15.034-20.615 31.097-28.778 48.056-3.252 6.755-6.001 13.76-9.278 20.5-.712 1.464-1.395 2.941-2.139 4.389-.264.514-.111-.96-.111-1.139"/></svg>
